X:230
T: Der Hammerschmiedssohn
N: Q0088A
O: Suedosteuropa, Jugoslawien, Batschka, Sotin
R: Ballade, Verfuehrung, Schwangerschaft, Mord
M: 3/4
L: 1/8
K: F
CFG | A3BGA | F2z
CFA | c3dBc | A2z
FFF | d3efd | c2z
AAc | c3dBc | A2z

